!!!COM:	Bach, Johann Sebastian
!!!OMV:	Vom Himmel hoch, da komm ich her
!!!OTL:	Vom Himmel hoch, da komm ich her
**kern	**fb	**kern	**kern	**kern	**kern	**kern	**kern	**kern	**kern	**kern	**kern	**kern	**kern	**kern
*part14	*part14	*part13	*part12	*part11	*part10	*part9	*part8	*part7	*part6	*part5	*part4	*part3	*part2	*part1
*staff14	*	*staff13	*staff12	*staff11	*staff10	*staff9	*staff8	*staff7	*staff6	*staff5	*staff4	*staff3	*staff2	*staff1
*I"Continuo	*	*I"Voice	*I"Voice	*I"Voice	*I"Voice	*I"Viola	*I"Violin	*I"Violin	*I"Oboe da caccia	*I"Oboe da caccia	*I"Oboe d'amore	*I"Oboe d'amore	*I"Flute	*I"Flute
*I'Cont.	*	*I'V	*I'V	*I'V	*I'V	*I'Vla.	*I'Vln.	*I'Vln.	*I'Ob. d. ca.	*I'Ob. d. ca.	*I'Ob. d'a.	*I'Ob. d'a.	*I'Fl.	*I'Fl.
*clefF4	*	*clefF4	*clefGv2	*clefG2	*clefG2	*clefC3	*clefG2	*clefG2	*clefC3	*clefC3	*clefG2	*clefG2	*clefG2	*clefG2
*Trd0c0	*	*	*	*	*	*	*	*	*	*	*	*	*	*
*k[f#]	*	*k[f#]	*k[f#]	*k[f#]	*k[f#]	*k[f#]	*k[f#]	*k[f#]	*k[f#]	*k[f#]	*k[f#]	*k[f#]	*k[f#]	*k[f#]
*M12/8	*	*M12/8	*M12/8	*M12/8	*M12/8	*M12/8	*M12/8	*M12/8	*M12/8	*M12/8	*M12/8	*M12/8	*M12/8	*M12/8
8.GL	.	4.G	4.d	4.b	4.gg	4.d	4.b	4.gg	4.r	4.r	4.r	4.r	4.r	4.r
16BK	.	.	.	.	.	.	.	.	.	.	.	.	.	.
8dJ	6 4	.	.	.	.	.	.	.	.	.	.	.	.	.
=2	=2	=2	=2	=2	=2	=2	=2	=2	=2	=2	=2	=2	=2	=2
8.dL	.	4.d	4.d	4.a	4.ff#	4.d	4.a	4.ff#	1.r	1.r	1.r	1.r	1.r	1.r
16c#XK	.	.	.	.	.	.	.	.	.	.	.	.	.	.
8dJ	.	.	.	.	.	.	.	.	.	.	.	.	.	.
8.GL	6 5	4G	4d	4b	4.ee	4d	4b	4.ee	.	.	.	.	.	.
16EK	.	.	.	.	.	.	.	.	.	.	.	.	.	.
8AJ	#	8A	8c#X	8a	.	8c#X	8a	.	.	.	.	.	.	.
8.DL	.	4.D	4d	4.a	4.ff#	4d	4.a	4.ff#	.	.	.	.	.	.
16EK	.	.	.	.	.	.	.	.	.	.	.	.	.	.
8F#J	.	.	8cn	.	.	8cn	.	.	.	.	.	.	.	.
8.GL	.	4.G	4c	4.g	4.dd	4c	4.g	4.dd	.	.	.	.	.	.
16F#K	.	.	.	.	.	.	.	.	.	.	.	.	.	.
8GJ	.	.	8B	.	.	8B	.	.	.	.	.	.	.	.
=3	=3	=3	=3	=3	=3	=3	=3	=3	=3	=3	=3	=3	=3	=3
8.CL	7	4.C	4B	4g	4.ee	4B	4g	4.ee	2.r	2.r	2.r	2.r	2.r	2.r
16BBK	.	.	.	.	.	.	.	.	.	.	.	.	.	.
8CJ	6 5	.	8A	8cc	.	8A	8cc	.	.	.	.	.	.	.
8.DL	6	4.D	4.d	4b	4.ff#	4.d	4b	4.ff#	.	.	.	.	.	.
16CK	.	.	.	.	.	.	.	.	.	.	.	.	.	.
8DJ	5	.	.	8a	.	.	8a	.	.	.	.	.	.	.
4.GG	.	4.GG	4.d	4.b	4.gg	4.d	4.b	4.gg	[2.G	4d	4g	4b	4bb	4bb
.	.	.	.	.	.	.	.	.	.	8c	8f#	8a	8aa	8aa
4.r	.	4.r	4.r	4.r	4.r	4.r	4.r	4.r	.	4c	4f#	4a	4aa	4aa
.	.	.	.	.	.	.	.	.	.	8B	8d	8g	8gg	8gg
=4	=4	=4	=4	=4	=4	=4	=4	=4	=4	=4	=4	=4	=4	=4
!!pagebreak:original
1.r	.	1.r	1.r	1.r	1.r	1.r	1.r	1.r	1.G_	4B	4d	8.gL	8.ggL	8.ggL
.	.	.	.	.	.	.	.	.	.	.	.	16eeK	16eeeK	16eeeK
.	.	.	.	.	.	.	.	.	.	8c	8f#	[8ddJ	[8dddJ	[8dddJ
.	.	.	.	.	.	.	.	.	.	4B	4g	8.ddL]	8.dddL]	8.dddL]
.	.	.	.	.	.	.	.	.	.	.	.	16gK	16ggK	16ggK
.	.	.	.	.	.	.	.	.	.	8A	8B#X	8f#J	8ff#J	8ff#J
.	.	.	.	.	.	.	.	.	.	4B	4d	8.gL	8.ggL	8.ggL
.	.	.	.	.	.	.	.	.	.	.	.	16eeK	16eeeK	16eeeK
.	.	.	.	.	.	.	.	.	.	8c	8f#	[8ddJ	[8dddJ	[8dddJ
.	.	.	.	.	.	.	.	.	.	4B	4g	8.ddL]	8.dddL]	8.dddL]
.	.	.	.	.	.	.	.	.	.	.	.	16gK	16ggK	16ggK
.	.	.	.	.	.	.	.	.	.	8A	8B#	8f#J	8ff#J	8ff#J
=5	=5	=5	=5	=5	=5	=5	=5	=5	=5	=5	=5	=5	=5	=5
4.r	.	4.r	4.r	4.r	4.r	4.r	4.r	4.r	4.G]	4.B	4.d	4.g	4.gg	4.gg
8.GGL	.	4G	4.d	4.b	4.gg	4.d	4.b	4.gg	4.r	4.r	4.r	4.r	4.r	4.r
16BBK	.	.	.	.	.	.	.	.	.	.	.	.	.	.
8EJ	.	8F#	.	.	.	.	.	.	.	.	.	.	.	.
8.EL	5	4.E	4.e	4.b	4.gg	4.e	4.b	4.gg	2.r	2.r	2.r	2.r	2.r	2.r
16DK	.	.	.	.	.	.	.	.	.	.	.	.	.	.
8EJ	.	.	.	.	.	.	.	.	.	.	.	.	.	.
8.BBL	5	4.B	4f#	4.b	4.dd	4f#	4.b	4.dd	.	.	.	.	.	.
16DK	.	.	.	.	.	.	.	.	.	.	.	.	.	.
8F#J	.	.	8g	.	.	8g	.	.	.	.	.	.	.	.
=6	=6	=6	=6	=6	=6	=6	=6	=6	=6	=6	=6	=6	=6	=6
!!pagebreak:original
8.F#L	6	4.F#	4.d	4.a	4dd	4.d	4.a	4dd	1.r	1.r	1.r	1.r	1.r	1.r
16EK	.	.	.	.	.	.	.	.	.	.	.	.	.	.
8F#J	.	.	.	.	8cc	.	.	8cc	.	.	.	.	.	.
8.GL	.	4G	4d	4.g	4b	4d	4.g	4b	.	.	.	.	.	.
16F#K	.	.	.	.	.	.	.	.	.	.	.	.	.	.
8EJ	6	8E	8e	.	8cc	8e	.	8cc	.	.	.	.	.	.
8.F#L	6	4F#	4A	4a	4.dd	4A	4a	4.dd	.	.	.	.	.	.
16AK	.	.	.	.	.	.	.	.	.	.	.	.	.	.
8G#XJ	6 5	8G#X	8B	8e	.	8B	8e	.	.	.	.	.	.	.
4A	8	4.A	8.cL	8.eL	4.cc	8.cL	8.eL	4.cc	.	.	.	.	.	.
.	7	.	16eK	16gK	.	16eK	16gK	.	.	.	.	.	.	.
8AA	6 #4|	.	8d#XJ	8f#J	.	8d#XJ	8f#J	.	.	.	.	.	.	.
=7	=7	=7	=7	=7	=7	=7	=7	=7	=7	=7	=7	=7	=7	=7
4.E	.	4.E	4.e	4.g	4.b	4.e	4.g	4.b	[1.e	4g	4e	4b	4gg	4gg
.	.	.	.	.	.	.	.	.	.	8f#	8f#	8dd#X	8ff#	8ff#
4.r	.	4.r	4.r	4.r	4.r	4.r	4.r	4.r	.	4f#	4f#	4dd#	4ff#	4ff#
.	.	.	.	.	.	.	.	.	.	8e	8g	8ee	8ee	8ee
2.r	.	2.r	2.r	2.r	2.r	2.r	2.r	2.r	.	8.eL	4g	4ee	8.eeL	8.eeL
.	.	.	.	.	.	.	.	.	.	16ccK	.	.	16cccK	16cccK
.	.	.	.	.	.	.	.	.	.	[8bJ	8ee	8gg	[8bbJ	[8bbJ
.	.	.	.	.	.	.	.	.	.	8.bL]	4dd#X	4ff#	8.bbL]	8.bbL]
.	.	.	.	.	.	.	.	.	.	16eK	.	.	16eeK	16eeK
.	.	.	.	.	.	.	.	.	.	8d#XJ	8ff#	8aa	8dd#XJ	8dd#XJ
=8	=8	=8	=8	=8	=8	=8	=8	=8	=8	=8	=8	=8	=8	=8
!!pagebreak:original
2.r	.	2.r	2.r	2.r	2.r	2.r	2.r	2.r	2.e_	8.eL	4b	4gg	8.eeL	8.eeL
.	.	.	.	.	.	.	.	.	.	16ccK	.	.	16cccK	16cccK
.	.	.	.	.	.	.	.	.	.	[8bJ	8g	8ee	[8bbJ	[8bbJ
.	.	.	.	.	.	.	.	.	.	8.bL]	4f#	4dd#X	8.bbL]	8.bbL]
.	.	.	.	.	.	.	.	.	.	16eK	.	.	16eeK	16eeK
.	.	.	.	.	.	.	.	.	.	8d#XJ	8a	8ff#	8dd#XJ	8dd#XJ
4.r	.	4.r	4.r	4.r	4.r	4.r	4.r	4.r	4.e]	4.e	4.g	4.ee	4.ee	4.ee
8.EL	.	4E	4.e	4.g	4.b	4.b	4.b	4.b	4.r	4.r	4.r	4.r	4.r	4.r
16DK	.	.	.	.	.	.	.	.	.	.	.	.	.	.
8EJ	.	8D	.	.	.	.	.	.	.	.	.	.	.	.
=9	=9	=9	=9	=9	=9	=9	=9	=9	=9	=9	=9	=9	=9	=9
8.CL	.	4C	4e	4.g	4.ee	4e	4.g	4.ee	1.r	1.r	1.r	1.r	1.r	1.r
16EK	.	.	.	.	.	.	.	.	.	.	.	.	.	.
8GJ	.	8D	8d	.	.	8d	.	.	.	.	.	.	.	.
8.GL	6 4	4E	4.c	4g	4.ee	4.c	4g	4.ee	.	.	.	.	.	.
16F#K	.	.	.	.	.	.	.	.	.	.	.	.	.	.
8GJ	.	8C	.	8a	.	.	8a	.	.	.	.	.	.	.
8.GGL	.	4.G	4B	4b	4dd	4B	4b	4dd	.	.	.	.	.	.
16BBK	.	.	.	.	.	.	.	.	.	.	.	.	.	.
8DJ	.	.	8c#X	8a	8ee	8c#X	8a	8ee	.	.	.	.	.	.
8.DL	.	4F#	4.d	4a	4.ff#	4.d	4a	4.ff#	.	.	.	.	.	.
16C#XK	.	.	.	.	.	.	.	.	.	.	.	.	.	.
8DJ	.	8B	.	8b	.	.	8b	.	.	.	.	.	.	.
=10	=10	=10	=10	=10	=10	=10	=10	=10	=10	=10	=10	=10	=10	=10
!!pagebreak:original
8.EEL	5	4E	4G	4b	4gg	4G	4b	4gg	2.r	2.r	2.r	2.r	2.r	2.r
16C#XK	6 5	.	.	.	.	.	.	.	.	.	.	.	.	.
8DJ	.	8F#	8d	8a	8ff#	8d	8a	8ff#	.	.	.	.	.	.
8.GGL	6 5	4G	4d	4b	4.ee	4d	4b	4.ee	.	.	.	.	.	.
16EEK	.	.	.	.	.	.	.	.	.	.	.	.	.	.
8AAJ	#	8A	8c#X	8a	.	8c#X	8a	.	.	.	.	.	.	.
4.DD	.	4.D	4.f#	4.a	4.dd	4.f#	4.a	4.dd	[2.d	4a	4f#	4aa	4ff#	4ff#
.	.	.	.	.	.	.	.	.	.	8cc#X	8e	8gg	8ee	8ee
4.r	.	4.r	4.r	4.r	4.r	4.r	4.r	4.r	.	4cc#	4e	4gg	4ee	4ee
.	.	.	.	.	.	.	.	.	.	8dd	8d	8ff#	8dd	8dd
=11	=11	=11	=11	=11	=11	=11	=11	=11	=11	=11	=11	=11	=11	=11
1.r	.	1.r	1.r	1.r	1.r	1.r	1.r	1.r	1.d_	4dd	8.dL	4ff#	8.ddL	8.ddL
.	.	.	.	.	.	.	.	.	.	.	16bK	.	16bbK	16bbK
.	.	.	.	.	.	.	.	.	.	8g	[8aJ	8cc#X	[8aaJ	[8aaJ
.	.	.	.	.	.	.	.	.	.	4f#	8.aL]	4dd	8.aaL]	8.aaL]
.	.	.	.	.	.	.	.	.	.	.	16dK	.	16ddK	16ddK
.	.	.	.	.	.	.	.	.	.	8e	8c#XJ	8gg	8cc#XJ	8cc#XJ
.	.	.	.	.	.	.	.	.	.	4d	8.dL	4ff#	8.ddL	8.ddL
.	.	.	.	.	.	.	.	.	.	.	16bK	.	16bbK	16bbK
.	.	.	.	.	.	.	.	.	.	8g	[8aJ	8cc#	[8aaJ	[8aaJ
.	.	.	.	.	.	.	.	.	.	4f#	8.aL]	4dd	8.aaL]	8.aaL]
.	.	.	.	.	.	.	.	.	.	.	16dK	.	16ddK	16ddK
.	.	.	.	.	.	.	.	.	.	8e	8c#J	8g	8cc#J	8cc#J
=12	=12	=12	=12	=12	=12	=12	=12	=12	=12	=12	=12	=12	=12	=12
!!pagebreak:original
4.r	.	4.r	4.r	4.r	4.r	4.r	4.r	4.r	4.d]	4.d	4.d	4.f#	4.dd	4.dd
8.EL	.	4E	4.e	4.b	4.gg	4.e	4.b	4.gg	4.r	4.r	4.r	4.r	4.r	4.r
16F#K	.	.	.	.	.	.	.	.	.	.	.	.	.	.
8GJ	.	8G	.	.	.	.	.	.	.	.	.	.	.	.
8.AL	6 5	4A	4e	4cc	4.ff#	4e	4cc	4.ff#	2.r	2.r	2.r	2.r	2.r	2.r
16F#K	.	.	.	.	.	.	.	.	.	.	.	.	.	.
8BJ	.	8B	8d	8b	.	8d	8b	.	.	.	.	.	.	.
8.GL	6 5	4G	4d	4b	4.ee	4d	4b	4.ee	.	.	.	.	.	.
16EK	.	.	.	.	.	.	.	.	.	.	.	.	.	.
8AJ	.	8A	8c	8a	.	8c	8a	.	.	.	.	.	.	.
=13	=13	=13	=13	=13	=13	=13	=13	=13	=13	=13	=13	=13	=13	=13
8.F#L	6 5	4F#	4c	4a	4.dd	4c	4a	4.dd	1.r	1.r	1.r	1.r	1.r	1.r
16DK	.	.	.	.	.	.	.	.	.	.	.	.	.	.
8GJ	3	8G	8B	8g	.	8B	8g	.	.	.	.	.	.	.
8.CL	.	4C	4c	4.g	4ee	4c	4.g	4ee	.	.	.	.	.	.
16EK	.	.	.	.	.	.	.	.	.	.	.	.	.	.
8GJ	.	8D	8B	.	8dd	8B	.	8dd	.	.	.	.	.	.
8.GL	6 4 2	4E	4c	4.g	4cc	4c	4.g	4cc	.	.	.	.	.	.
16F#K	.	.	.	.	.	.	.	.	.	.	.	.	.	.
8GJ	.	8D	8d	.	8b	8d	.	8b	.	.	.	.	.	.
8.CL	6 5	4C	4e	4g	4.a	4e	4g	4.a	.	.	.	.	.	.
16AAK	.	.	.	.	.	.	.	.	.	.	.	.	.	.
8DJ	.	8D	8d	8f#	.	8d	8f#	.	.	.	.	.	.	.
=14	=14	=14	=14	=14	=14	=14	=14	=14	=14	=14	=14	=14	=14	=14
!!pagebreak:original
4.GG	.	4.GG	4.B	4.d	4.g	4.B	4.d	4.g	[1.G	4d	4g	4b	4bb	4bb
.	.	.	.	.	.	.	.	.	.	8c	8f#	8a	8aa	8aa
4.r	.	4.r	4.r	4.r	4.r	4.r	4.r	4.r	.	4c	4f#	4a	4aa	4aa
.	.	.	.	.	.	.	.	.	.	8B	8d	8g	8gg	8gg
2.r	.	2.r	2.r	2.r	2.r	2.r	2.r	2.r	.	4B	4d	8.gL	8.ggL	8.ggL
.	.	.	.	.	.	.	.	.	.	.	.	16eeK	16eeeK	16eeeK
.	.	.	.	.	.	.	.	.	.	8c	8f#	[8ddJ	[8dddJ	[8dddJ
.	.	.	.	.	.	.	.	.	.	4B	4g	8.ddL]	8.dddL]	8.dddL]
.	.	.	.	.	.	.	.	.	.	.	.	16gK	16ggK	16ggK
.	.	.	.	.	.	.	.	.	.	8A	8B#X	8f#J	8ff#J	8ff#J
=15	=15	=15	=15	=15	=15	=15	=15	=15	=15	=15	=15	=15	=15	=15
1.r	.	1.r	1.r	1.r	1.r	1.r	1.r	1.r	1.G]	4B	4d	8.gL	8.ggL	8.ggL
.	.	.	.	.	.	.	.	.	.	.	.	16eeK	16eeeK	16eeeK
.	.	.	.	.	.	.	.	.	.	8c	8f#	[8ddJ	[8dddJ	[8dddJ
.	.	.	.	.	.	.	.	.	.	4B	4g	8.ddL]	8.dddL]	8.dddL]
.	.	.	.	.	.	.	.	.	.	.	.	16gK	16ggK	16ggK
.	.	.	.	.	.	.	.	.	.	8A	8B#X	8f#J	8ff#J	8ff#J
.	.	.	.	.	.	.	.	.	.	2.B;	2.d;	2.g;	2.gg;	2.gg;
==	==	==	==	==	==	==	==	==	==	==	==	==	==	==
*-	*-	*-	*-	*-	*-	*-	*-	*-	*-	*-	*-	*-	*-	*-
!!!system-decoration: s1,s2,s3,s4,s5,s6,s7,s8,s9,s10,s11,s12,s13,s14
